images/write.svg

<svg width="19" height="19" viewBox="0 0 19 19" fill="none" xmlns="http://www.w3.org/2000/svg">
<path d="M14.504 0.00484704C14.3258 0.0262529 14.1601 0.107626 14.0343 0.235604L0.980013 13.2899C0.870414 13.4004 0.795878 13.5409 0.765739 13.6937L0.0157787 17.4188C-0.0102928 17.5473 -0.0039789 17.6804 0.0341521 17.8059C0.072283 17.9315 0.141034 18.0455 0.234217 18.1379C0.327399 18.2303 0.442088 18.298 0.56796 18.3351C0.693832 18.3721 0.826936 18.3772 0.955289 18.35L4.67212 17.6083C4.82782 17.5797 4.97136 17.5051 5.08419 17.394L18.1384 4.33978C18.2122 4.26627 18.2707 4.17892 18.3106 4.08275C18.3506 3.98659 18.3711 3.8835 18.3711 3.77937C18.3711 3.67525 18.3506 3.57214 18.3106 3.47597C18.2707 3.3798 18.2122 3.29247 18.1384 3.21896L15.1468 0.235604C15.0351 0.121552 14.8914 0.0439823 14.7348 0.0130884C14.6587 -0.000923336 14.5809 -0.00370874 14.504 0.00484704ZM14.5947 1.91683L16.4572 3.77937L16.0864 4.15023L14.2238 2.27945L14.5947 1.91683ZM13.103 3.40851L14.9655 5.27105L4.13644 16.1001L1.80414 16.5617L2.26566 14.2458L13.103 3.40851Z" fill="white"/>
</svg>

<svg width="19" height="19" fill="none" xmlns="http://www.w3.org/2000/svg"><path d="M14.504.005a.791.791 0 00-.47.23L.98 13.29a.79.79 0 00-.214.404l-.75 3.725a.79.79 0 00.94.931l3.716-.742a.79.79 0 00.412-.214L18.138 4.34a.79.79 0 000-1.121L15.147.236a.791.791 0 00-.412-.223.792.792 0 00-.231-.008zm.09 1.912l1.863 1.862-.37.371-1.863-1.87.37-.363zm-1.491 1.492l1.863 1.862-10.83 10.83-2.332.46.462-2.315L13.103 3.409z" fill="#fff"/></svg>
